!!!OTL: WAS GLEICHET UNS TURNERN
!!!ARE: Europa, Mitteleuropa, Deutschland
!!!SCT: B0541
!!!YEM: Copyright 1995, estate of Helmut Schaffrath.
**kern
*ICvox
*Ivox
*M6/8
*k[f#]
*G:
{8d
=1
8.g
16f#
8g
8.a
16g
8a
=2
8b
4g
4r}
{8g
=3
8.b
16a
8b
8.cc
16b
8cc
=4
8.dd
16ee
16dd
16cc
4b}
{16g
16b
=5
8dd
8dd
8dd
8.b
16a
8b
=6
8cc
8cc
8cc
8.a
16g}
{8a
=7
8b
8b
8a
4b
16dd
16cc
=8
8b
8b
8a
4g}
{16g
16b
=9
8dd
8dd
8dd
8.b
16a
8b
=10
8cc
8cc
8cc
8.a
16g}
{8a
=11
8b
8b
8a
4b
16dd
16cc
=12
8b
8b
8a
4g}
==
!!!AGN: Turner - Lied
!!!ONB: ESAC (Essen Associative Code) Database: BOEHME
!!!AMT: compound duple
!!!AIN: vox
!!!EED: Helmut Schaffrath
!!!EEV: 1.0
*-
